X:2253
T:Untitled (KV 253) 
C:Traditional
O:Isle of Man
S:Blind Cain, Douglas 
Z:Clague collection
N:Last bar added
B:Kiaull Vannin #253 
L:1/4
M:3/4 
Q:120 
K:D 
F|B B B|A B c|d e d|c2 f|e d c|B F G/A/|!fine!B2:| 
B/c/|d e f|g f e|f2 f|e d c|B c B/c/|!D.C.!F3-|!fine!F2||

